icon-themes/sifr_svg/cmd/sc_helplinesvisible.svg

<svg viewBox="0 0 16 16" xmlns="http://www.w3.org/2000/svg"><path d="m1 1v2h2v-2zm0 4v2h2v-2zm0 4v2h2v-2zm0 4v2h2v-2zm4 0v2h2v-2zm4 0v2h2v-2zm4 0v2h2v-2z" fill="#555753"/></svg>

<svg xmlns="http://www.w3.org/2000/svg" viewBox="0 0 16 16">
  <path
     style="fill:#555753"
     d="M 1,1 V 3 H 3 V 1 Z M 1,5 V 7 H 3 V 5 Z m 0,4 v 2 H 3 V 9 Z m 0,4 v 2 h 2 v -2 z m 4,0 v 2 h 2 v -2 z m 4,0 v 2 h 2 v -2 z m 4,0 v 2 h 2 v -2 z"
     />
</svg>
